icons/1_Primary/Cisco.svg

<svg xmlns="http://www.w3.org/2000/svg" viewBox="0 0 1024 1024">
   <circle cx="512" cy="512" r="512" style="fill:#00bceb"/>
   <path d="M382.4 651.4h26.2V547.7h-26.2v103.7zm-115-51.9c0 33.4 25.8 53.7 55.2 53.7 11.7 0 20.6-2.7 23.9-3.7v-27.8c-1.2.6-9.7 5.5-22 5.5-17.5 0-28.7-12.3-28.7-27.7 0-15.8 11.7-27.7 28.7-27.7 12.5 0 20.9 5 22 5.6v-27.8c-2.5-.7-11.6-3.7-23.9-3.7-31.8 0-55.2 22.7-55.2 53.6m273.1 0c0 33.4 25.8 53.7 55.2 53.7 11.6 0 20.6-2.7 23.8-3.7v-27.8c-1.1.6-9.7 5.5-22 5.5-17.4 0-28.7-12.3-28.7-27.7 0-15.8 11.7-27.7 28.7-27.7 12.5 0 20.9 5 22 5.6v-27.8c-2.5-.7-11.6-3.7-23.8-3.7-31.9 0-55.2 22.7-55.2 53.6m134.3 0c0-15 11.5-27.3 27.1-27.3 15.5 0 27.1 12.2 27.1 27.3 0 15.1-11.6 27.3-27.1 27.3-15.6.1-27.1-12.2-27.1-27.3m-27.7 0c0 29.7 22.9 53.7 54.7 53.7 31.9 0 54.8-24 54.8-53.7 0-29.6-22.9-53.6-54.8-53.6-31.8 0-54.7 24-54.7 53.6m-203.4-21.2c0 17.2 12.2 25.7 26.7 30.3 1.6.5 4 1.3 5.6 1.8 6.5 2 11.6 5.1 11.6 10.3 0 5.9-6 9.7-19 9.7-11.4 0-22.4-3.3-24.7-3.9v23.9c1.3.3 14.3 2.8 28.2 2.8 20 0 42.9-8.7 42.9-34.8 0-12.6-7.7-24.3-24.7-29.6l-7.2-2.3c-4.3-1.4-12-3.6-12-9.9 0-5 5.7-8.5 16.2-8.5 9 0 20.1 3 20.4 3.2v-22.2c-.8-.2-12.8-3.3-25.5-3.3-24 .1-38.5 13.1-38.5 32.5m-230-142v27.2c0 7.2 5.9 13 13 13 7.2 0 13-5.8 13-13v-27.2c0-7.1-5.8-13-13-13-7.2.1-13 5.9-13 13m285.4 0v27.2c0 7.2 5.8 13 13 13 7.1 0 12.9-5.8 12.9-13v-27.2c0-7.1-5.8-13-12.9-13-7.2.1-13 5.9-13 13m285.3 0v27.2c0 7.2 5.8 13 12.9 13 7.1 0 12.9-5.8 12.9-13v-27.2c0-7.1-5.8-13-12.9-13-7.1.1-12.9 5.9-12.9 13M285 400.6v62.9c0 7.2 5.8 13 13 13s13-5.8 13-13v-62.9c0-7.1-5.8-13-13-13s-13 5.9-13 13m142.7 0v62.9c0 7.2 5.8 13 13 13s13-5.8 13-13v-62.9c0-7.1-5.8-13-13-13-7.1 0-13 5.9-13 13m142.7 0v62.9c0 7.2 5.8 13 13 13 7.1 0 13-5.8 13-13v-62.9c0-7.1-5.8-13-13-13s-13 5.9-13 13m142.6 0v62.9c0 7.2 5.8 13 12.9 13 7.3 0 13.1-5.8 13.1-13v-62.9c0-7.1-5.8-13-13.1-13-7.1 0-12.9 5.9-12.9 13m-356.6-48.9v137.7c0 7.2 5.8 13 13 13 7.1 0 13-5.8 13-13V351.7c0-7.2-5.8-13-13-13-7.2.1-13 5.9-13 13m285.4 0v137.7c0 7.2 5.8 13 12.9 13 7.2 0 12.9-5.8 12.9-13V351.7c0-7.2-5.8-13-12.9-13-7.1.1-12.9 5.9-12.9 13" style="fill:#fff"/>
</svg>

<svg width="1024" height="1024" viewBox="0 0 1024 1024" fill="none" xmlns="http://www.w3.org/2000/svg">
<g clip-path="url(#clip0_2_1800)">
<path d="M512 1024C794.77 1024 1024 794.77 1024 512C1024 229.23 794.77 0 512 0C229.23 0 0 229.23 0 512C0 794.77 229.23 1024 512 1024Z" fill="#9ABEFF"/>
<path d="M382.4 651.4H408.6V547.7H382.4V651.4ZM267.4 599.5C267.4 632.9 293.2 653.2 322.6 653.2C334.3 653.2 343.2 650.5 346.5 649.5V621.7C345.3 622.3 336.8 627.2 324.5 627.2C307 627.2 295.8 614.9 295.8 599.5C295.8 583.7 307.5 571.8 324.5 571.8C337 571.8 345.4 576.8 346.5 577.4V549.6C344 548.9 334.9 545.9 322.6 545.9C290.8 545.9 267.4 568.6 267.4 599.5ZM540.5 599.5C540.5 632.9 566.3 653.2 595.7 653.2C607.3 653.2 616.3 650.5 619.5 649.5V621.7C618.4 622.3 609.8 627.2 597.5 627.2C580.1 627.2 568.8 614.9 568.8 599.5C568.8 583.7 580.5 571.8 597.5 571.8C610 571.8 618.4 576.8 619.5 577.4V549.6C617 548.9 607.9 545.9 595.7 545.9C563.8 545.9 540.5 568.6 540.5 599.5ZM674.8 599.5C674.8 584.5 686.3 572.2 701.9 572.2C717.4 572.2 729 584.4 729 599.5C729 614.6 717.4 626.8 701.9 626.8C686.3 626.9 674.8 614.6 674.8 599.5ZM647.1 599.5C647.1 629.2 670 653.2 701.8 653.2C733.7 653.2 756.6 629.2 756.6 599.5C756.6 569.9 733.7 545.9 701.8 545.9C670 545.9 647.1 569.9 647.1 599.5ZM443.7 578.3C443.7 595.5 455.9 604 470.4 608.6C472 609.1 474.4 609.9 476 610.4C482.5 612.4 487.6 615.5 487.6 620.7C487.6 626.6 481.6 630.4 468.6 630.4C457.2 630.4 446.2 627.1 443.9 626.5V650.4C445.2 650.7 458.2 653.2 472.1 653.2C492.1 653.2 515 644.5 515 618.4C515 605.8 507.3 594.1 490.3 588.8L483.1 586.5C478.8 585.1 471.1 582.9 471.1 576.6C471.1 571.6 476.8 568.1 487.3 568.1C496.3 568.1 507.4 571.1 507.7 571.3V549.1C506.9 548.9 494.9 545.8 482.2 545.8C458.2 545.9 443.7 558.9 443.7 578.3ZM213.7 436.3V463.5C213.7 470.7 219.6 476.5 226.7 476.5C233.9 476.5 239.7 470.7 239.7 463.5V436.3C239.7 429.2 233.9 423.3 226.7 423.3C219.5 423.4 213.7 429.2 213.7 436.3ZM499.1 436.3V463.5C499.1 470.7 504.9 476.5 512.1 476.5C519.2 476.5 525 470.7 525 463.5V436.3C525 429.2 519.2 423.3 512.1 423.3C504.9 423.4 499.1 429.2 499.1 436.3ZM784.4 436.3V463.5C784.4 470.7 790.2 476.5 797.3 476.5C804.4 476.5 810.2 470.7 810.2 463.5V436.3C810.2 429.2 804.4 423.3 797.3 423.3C790.2 423.4 784.4 429.2 784.4 436.3ZM285 400.6V463.5C285 470.7 290.8 476.5 298 476.5C305.2 476.5 311 470.7 311 463.5V400.6C311 393.5 305.2 387.6 298 387.6C290.8 387.6 285 393.5 285 400.6ZM427.7 400.6V463.5C427.7 470.7 433.5 476.5 440.7 476.5C447.9 476.5 453.7 470.7 453.7 463.5V400.6C453.7 393.5 447.9 387.6 440.7 387.6C433.6 387.6 427.7 393.5 427.7 400.6ZM570.4 400.6V463.5C570.4 470.7 576.2 476.5 583.4 476.5C590.5 476.5 596.4 470.7 596.4 463.5V400.6C596.4 393.5 590.6 387.6 583.4 387.6C576.2 387.6 570.4 393.5 570.4 400.6ZM713 400.6V463.5C713 470.7 718.8 476.5 725.9 476.5C733.2 476.5 739 470.7 739 463.5V400.6C739 393.5 733.2 387.6 725.9 387.6C718.8 387.6 713 393.5 713 400.6ZM356.4 351.7V489.4C356.4 496.6 362.2 502.4 369.4 502.4C376.5 502.4 382.4 496.6 382.4 489.4V351.7C382.4 344.5 376.6 338.7 369.4 338.7C362.2 338.8 356.4 344.6 356.4 351.7ZM641.8 351.7V489.4C641.8 496.6 647.6 502.4 654.7 502.4C661.9 502.4 667.6 496.6 667.6 489.4V351.7C667.6 344.5 661.8 338.7 654.7 338.7C647.6 338.8 641.8 344.6 641.8 351.7Z" fill="white"/>
</g>
<defs>
<clipPath id="clip0_2_1800">
<rect width="1024" height="1024" fill="white"/>
</clipPath>
</defs>
</svg>
